docs/img/directions-slider/4.svg

<svg width="80" height="80" viewBox="0 0 80 80" fill="none" xmlns="http://www.w3.org/2000/svg">
<path d="M76.25 76.25H78.75V78.75H76.25V76.25Z" fill="#0098D0"/>
<path d="M61.25 76.25H73.75V78.75H61.25V76.25Z" fill="#0098D0"/>
<path d="M61.25 71.25H78.75V73.75H61.25V71.25Z" fill="#0098D0"/>
<path d="M61.25 66.25H66.25V68.75H61.25V66.25Z" fill="#0098D0"/>
<path d="M68.75 66.25H78.75V68.75H68.75V66.25Z" fill="#0098D0"/>
<path d="M64.0688 54.0662L58.6125 34.9675L52.5362 61.7025L49.7612 48.75H45.8563C46.1075 46.8338 46.25 44.8913 46.25 42.9238V33.9913C46.25 32.1225 45.835 30.3512 45.1088 28.7512H48.75V26.2512H43.75V21.2512H41.25V23.895C39.7238 22.7225 37.9312 21.88 35.9737 21.495C34.5425 19.5275 33.75 17.135 33.75 14.6962V5C33.75 2.8625 31.0638 1.25 27.5 1.25C23.9362 1.25 21.25 2.8625 21.25 5V16.25C21.25 18.2988 20.8688 20.3325 20.1688 22.25C17.6638 19.4437 16.25 15.7975 16.25 11.9963V5C16.25 2.9325 14.5675 1.25 12.5 1.25C10.4325 1.25 8.75 2.9325 8.75 5V11.25L8 10.25C7.295 9.31 6.17375 8.75 5 8.75C2.9325 8.75 1.25 10.4325 1.25 12.5V14.055C1.25 14.88 1.45625 15.7 1.8475 16.425L9.00625 29.7187C4.19 33.1725 1.25 38.815 1.25 44.7888C1.25 57.7088 8.26625 69.6338 19.56 75.9088L23.4575 78.0725C24.2563 78.5163 25.1588 78.75 26.07 78.75C27.2688 78.75 28.45 78.3425 29.395 77.6C37.8825 70.9325 43.4862 61.6087 45.455 51.25H47.74L52.465 73.2987L58.8888 45.0338L63.4312 60.935L68.2725 51.25H78.75V48.75H66.7275L64.0688 54.0662ZM23.75 16.25V8.02625C24.7825 8.47875 26.0637 8.75 27.5 8.75C28.9363 8.75 30.2175 8.47875 31.25 8.02625V14.6975C31.25 16.9963 31.8287 19.2625 32.8962 21.2812C29.7237 21.4312 26.76 22.7225 24.5 24.9825L23.2325 26.25H21.0538C22.7975 23.2225 23.75 19.7513 23.75 16.25V16.25ZM27.5 3.75C29.92 3.75 31.25 4.68875 31.25 5C31.25 5.31125 29.92 6.25 27.5 6.25C25.08 6.25 23.75 5.31125 23.75 5C23.75 4.68875 25.08 3.75 27.5 3.75ZM3.75 14.055V12.5C3.75 11.8113 4.31125 11.25 5 11.25C5.39125 11.25 5.765 11.4362 6 11.75L8.75 15.4163V18.75H11.25V5C11.25 4.31125 11.8113 3.75 12.5 3.75C13.1887 3.75 13.75 4.31125 13.75 5V11.9963C13.75 16.78 15.6875 21.34 19.065 24.69C18.7525 25.26 18.405 25.8113 18.03 26.3438C15.6212 26.5738 13.28 27.2688 11.1363 28.4013L4.04875 15.24C3.85375 14.8775 3.75 14.4675 3.75 14.055V14.055ZM11.5363 31.0363C13.3688 29.9363 15.3988 29.2213 17.5 28.9188V29.9837C17.5 34.8175 13.5675 38.75 8.7325 38.75C8.0175 38.75 7.30125 38.6625 6.60625 38.4888L5.23375 38.145C6.565 35.2363 8.7275 32.7213 11.5363 31.0363ZM43.75 42.9238C43.75 55.7725 37.955 67.695 27.8525 75.6337C27.6212 75.8162 27.36 75.9525 27.0863 76.0525L24.0188 66.8475C23.5988 65.5875 23.285 64.3013 23.0387 63.0025L29.31 59.8675L28.1912 57.6312L22.6588 60.3975C22.5638 59.4363 22.5 58.4713 22.5 57.5C22.5 54.3175 23.01 51.1712 24.0175 48.1512L24.9362 45.395L22.565 44.6037L21.6462 47.36C21.2275 48.615 20.9138 49.895 20.655 51.1837L16.895 48.9275L15.6088 51.0712L20.235 53.8475C20.095 55.0587 20 56.275 20 57.5C20 60.9525 20.5537 64.3625 21.645 67.6388L24.3313 75.6987L20.775 73.7225C10.2738 67.8888 3.75 56.8013 3.75 44.7888C3.75 43.3238 3.965 41.885 4.3525 40.5013L6.00125 40.9137C6.895 41.1375 7.81375 41.25 8.7325 41.25C14.9463 41.25 20 36.1963 20 29.9825V28.75H23.0238L23.8762 30.2413C26.4812 34.8 30.6975 38.1062 35.7463 39.5487L43.75 41.8363V42.9238ZM43.75 39.2362L37.9012 37.565C37.64 36.6338 37.5 35.675 37.5 34.705V31.25H35V34.705C35 35.3812 35.0575 36.0513 35.16 36.7138C34.4713 36.4588 33.8 36.1713 33.155 35.8363C32.7288 34.67 32.5 33.4525 32.5 32.205V28.75H30V32.205C30 32.745 30.045 33.28 30.11 33.8112C28.4975 32.48 27.1137 30.8663 26.0475 29.0013L25.3087 27.7087L26.2687 26.7488C28.2025 24.815 30.7738 23.75 33.51 23.75C39.1563 23.75 43.75 28.3437 43.75 33.99V39.2362Z" fill="#0098D0"/>
<path d="M46.25 16.25V23.75H73.75V6.25H66.25V21.25H63.75V11.25H56.25V21.25H53.75V16.25H46.25ZM68.75 8.75H71.25V21.25H68.75V8.75ZM58.75 13.75H61.25V21.25H58.75V13.75ZM51.25 21.25H48.75V18.75H51.25V21.25Z" fill="#0098D0"/>
<path d="M71.25 1.25V3.75H76.25V8.75H78.75V1.25H71.25Z" fill="#0098D0"/>
<path d="M76.25 26.25H71.25V28.75H78.75V21.25H76.25V26.25Z" fill="#0098D0"/>
<path d="M43.75 3.75H48.75V1.25H41.25V8.75H43.75V3.75Z" fill="#0098D0"/>
</svg>

<svg width="80" height="80" fill="none" xmlns="http://www.w3.org/2000/svg"><path d="M76.25 76.25h2.5v2.5h-2.5v-2.5zm-15 0h12.5v2.5h-12.5v-2.5zm0-5h17.5v2.5h-17.5v-2.5zm0-5h5v2.5h-5v-2.5zm7.5 0h10v2.5h-10v-2.5zm-4.681-12.184l-5.457-19.099-6.076 26.736-2.775-12.953h-3.905c.252-1.916.394-3.859.394-5.826V33.99c0-1.868-.415-3.64-1.141-5.24h3.641v-2.5h-5v-5h-2.5v2.644a12.675 12.675 0 00-5.276-2.4 11.602 11.602 0 01-2.224-6.799V5c0-2.138-2.686-3.75-6.25-3.75S21.25 2.862 21.25 5v11.25a17.53 17.53 0 01-1.081 6 15.408 15.408 0 01-3.919-10.254V5a3.755 3.755 0 00-3.75-3.75A3.755 3.755 0 008.75 5v6.25l-.75-1a3.767 3.767 0 00-3-1.5 3.755 3.755 0 00-3.75 3.75v1.555c0 .825.206 1.645.597 2.37l7.16 13.294C4.19 33.172 1.25 38.815 1.25 44.789a35.621 35.621 0 0018.31 31.12l3.898 2.163a5.39 5.39 0 002.612.678c1.199 0 2.38-.407 3.325-1.15 8.488-6.667 14.091-15.991 16.06-26.35h2.285l4.725 22.049 6.424-28.265 4.542 15.901 4.841-9.685H78.75v-2.5H66.728l-2.66 5.316zM23.75 16.25V8.026c1.032.453 2.314.724 3.75.724s2.718-.271 3.75-.724v6.671c0 2.3.579 4.566 1.646 6.584a12.64 12.64 0 00-8.396 3.702l-1.267 1.267h-2.18c1.744-3.027 2.697-6.499 2.697-10zm3.75-12.5c2.42 0 3.75.939 3.75 1.25 0 .311-1.33 1.25-3.75 1.25S23.75 5.311 23.75 5c0-.311 1.33-1.25 3.75-1.25zM3.75 14.055V12.5A1.252 1.252 0 016 11.75l2.75 3.666v3.334h2.5V5c0-.689.561-1.25 1.25-1.25s1.25.561 1.25 1.25v6.996c0 4.784 1.938 9.344 5.315 12.694-.313.57-.66 1.121-1.035 1.654-2.409.23-4.75.925-6.894 2.057L4.05 15.24a2.51 2.51 0 01-.299-1.185zm7.786 16.981A16.023 16.023 0 0117.5 28.92v1.065c0 4.834-3.932 8.766-8.768 8.766a8.782 8.782 0 01-2.126-.261l-1.372-.344c1.331-2.909 3.493-5.424 6.302-7.109zM43.75 42.924c0 12.849-5.795 24.771-15.898 32.71a2.758 2.758 0 01-.766.418l-3.067-9.205a29.534 29.534 0 01-.98-3.844l6.271-3.136-1.119-2.236-5.532 2.767A29.437 29.437 0 0122.5 57.5c0-3.182.51-6.329 1.517-9.349l.92-2.756-2.372-.791-.919 2.756a31.892 31.892 0 00-.991 3.824l-3.76-2.256-1.286 2.143 4.626 2.776A31.786 31.786 0 0020 57.5c0 3.453.554 6.862 1.645 10.139l2.686 8.06-3.556-1.977A33.117 33.117 0 013.75 44.79c0-1.465.215-2.904.603-4.288L6 40.914c.894.224 1.813.336 2.731.336C14.947 41.25 20 36.196 20 29.983V28.75h3.024l.852 1.491a19.894 19.894 0 0011.87 9.308l8.004 2.287v1.088zm0-3.688l-5.849-1.671a10.578 10.578 0 01-.401-2.86V31.25H35v3.455c0 .676.057 1.346.16 2.009a17.6 17.6 0 01-2.005-.878 10.542 10.542 0 01-.655-3.631V28.75H30v3.455c0 .54.045 1.075.11 1.606a17.487 17.487 0 01-4.063-4.81l-.738-1.292.96-.96a10.173 10.173 0 017.241-2.999c5.646 0 10.24 4.594 10.24 10.24v5.246z" fill="#0098D0"/><path d="M46.25 16.25v7.5h27.5V6.25h-7.5v15h-2.5v-10h-7.5v10h-2.5v-5h-7.5zm22.5-7.5h2.5v12.5h-2.5V8.75zm-10 5h2.5v7.5h-2.5v-7.5zm-7.5 7.5h-2.5v-2.5h2.5v2.5z" fill="#0098D0"/><path d="M71.25 1.25v2.5h5v5h2.5v-7.5h-7.5zm5 25h-5v2.5h7.5v-7.5h-2.5v5zm-32.5-22.5h5v-2.5h-7.5v7.5h2.5v-5z" fill="#0098D0"/></svg>
